teeny/solid/x-circle.svg

<svg width="15" height="15" viewBox="0 0 15 15" fill="none" xmlns="http://www.w3.org/2000/svg">
<path fill-rule="evenodd" clip-rule="evenodd" d="M0 7.5C0 3.35786 3.35786 0 7.5 0C11.6421 0 15 3.35786 15 7.5C15 11.6421 11.6421 15 7.5 15C3.35786 15 0 11.6421 0 7.5ZM10.1465 10.8536L7.50004 8.20714L4.85359 10.8536L4.14648 10.1465L6.79293 7.50004L4.14648 4.85359L4.85359 4.14648L7.50004 6.79293L10.1465 4.14648L10.8536 4.85359L8.20714 7.50004L10.8536 10.1465L10.1465 10.8536Z" fill="black"/>
</svg>

<svg viewBox="0 0 15 15" xmlns="http://www.w3.org/2000/svg"><path fill-rule="evenodd" d="M0 7.5C0 3.35 3.35 0 7.5 0 11.64 0 15 3.35 15 7.5c0 4.14-3.36 7.5-7.5 7.5C3.35 15 0 11.64 0 7.5Zm10.14 3.35L7.49 8.2l-2.65 2.64 -.71-.71 2.64-2.65 -2.65-2.65 .7-.71 2.64 2.64 2.64-2.65 .7.7 -2.65 2.64 2.64 2.64 -.71.7Z"/></svg>
